X: 10218
T: Disused Railway, The
R: slip jig
M: 9/8
K: Bminor
B2d dcB fBB|B2d cBA a3|B2c dcB gBB|B2d cBA B2A|
B2d dcB fBB|B2d cBA a3|B2c dcB gBB|B2d cBA B2c|
d2e fed add|d2f ecA ecA|d2e fed aee|f2b b2a b3|
a2g fed def|e2d cBA ecA|B2c dcB fBB|c2d cBA B2A|

